X:048 
T:Eileen O'Loughlin's* (reel)
S:Sean Reid MS
F:file ID: cre.4/048eileen
B:CRE4.141: gan ainm
Q:180
L:1/8
M:4/4
R:reel
K:D
B|dcAB =c2de|dcAG FDD2|dcAB =c2AF|GBAG D4|
dcAB =c2de|dcAG FDD2|dcAB =c2AF|GBAG D3||
B/c/|d2 ef gfec|d2 ed cA A2|d2 ef gfeg|agec d2Bc|
d2 ef gfec|d2 ed cA A2|d2 ef gfeg|agec d4|]

%%%

